X: 240
T: Leake County Two-Step
B: canberra pickers and fiddlers
B: tunes
M:4/4
L:1/8
Q: 1/4=100
K:G
V:1 
Bc|"G"dcBd g2g2|"D"dcBd [B2g2][B2g2]|"C"fefg [c2a2][c2a2]|"G"g2ga bage|
"G"dcBd g2g2|"D"dcBd [B2g2][B2g2]|f2e2 dcBA|"G"B2G2G2||
|:A|"G"B2G2 [G2B2]FG|AFFG F3(D|"D"E2)[c2e2]E2[c2e2]|"G"[G2d2]Bd BAGE|
"G"D2[G2B2]D2[G2B2]|AFFG F3(e|"D"f2)e2 dcBA|"G"B2G2[G3B3]:|]
% abcbook-tune_id 63ae8f1c8c5dab37f1b8ed55
% abcbook-tune_composer_id 
% abcbook-link-0 https://www.youtube.com/watch?v=LeHf5JPV-3Q
% abcbook-boost 0
% abcbook-difficulty 0
% abcbook-tags canberra pickers and fiddlers,old time tunes,© free
% abcbook-tablature 
% abcbook-transpose 
% abcbook-tuning GDAD
% abcbook-lastupdated 1729115061408
% abcbook-src-url https://tunebook.net/scrape/tunes.abc
% abcbook-soundfonts 
% abcbook-repeats 1


